assets/logos/beta-gouv.svg

<svg width="248" height="248" viewBox="0 0 248 248" fill="none" xmlns="http://www.w3.org/2000/svg">
<rect width="248" height="248" rx="124" fill="white"/>
<path d="M188.263 182.794C185.71 179.017 182.678 175.09 180.059 171.331C174.577 163.595 169.286 155.728 164.19 147.734C160.788 142.448 155.464 134.156 153.148 128.513C150.724 122.603 149.919 109.506 149.36 102.931C148.917 97.6927 148.755 90.8256 148.574 85.5837C148.109 71.0826 147.927 56.5738 148.027 42.0657C148.025 36.0403 148.057 30.0149 148.12 23.9898C148.186 17.6512 147.139 8.96503 154.37 5.7383C158.32 3.97547 161.623 5.75608 165.376 7.06234C189.181 15.3513 209.679 31.0248 224.432 51.3418C229.042 57.6362 233.04 64.3543 236.369 71.405C241.992 83.6228 245.981 97.0267 247.195 110.42C247.294 111.498 247.752 116.983 248 117.497V130.695C247.736 131.273 247.18 137.655 247.066 138.837C246.209 147.762 244.069 156.648 241.109 165.111C237.5 175.158 232.676 184.728 226.743 193.61C222.956 199.167 218.647 204.523 214.032 209.411C212.912 210.599 211.591 211.73 210.574 213C208.322 209.613 205.17 205.986 202.754 202.632C199.788 198.512 196.731 194.237 193.622 190.241C191.81 187.663 190.222 185.311 188.263 182.794Z" fill="#FE0000"/>
<path d="M0.402369 114.609C0.575093 112.002 0.699223 109.051 1.04823 106.491C5.30294 77.2916 19.5291 50.5334 41.2454 30.8848C52.8537 20.5622 66.2641 12.361 80.814 7.08932C85.8064 5.28043 91.026 3.08824 95.1597 7.9861C98.6595 12.1327 97.8632 18.6013 97.8877 23.8008L97.9943 39.9243C98.0234 51.6356 97.9416 63.3469 97.7491 75.0566C97.5551 90.6685 97.2937 106.895 94.805 122.32C93.439 130.788 86.099 141.786 81.4828 149.017C72.8913 162.454 63.8944 175.62 54.5047 188.495L41.4188 206.574C39.73 208.864 38.4571 210.724 36.6249 213C34.9764 210.892 33.8466 210.001 32.2469 208.193C29.448 205.046 26.7856 201.776 24.2671 198.395C18.0482 190.213 12.4587 179.713 8.74081 170.118C5.45376 161.769 3.0114 153.101 1.45131 144.249C1.07874 142.211 0.832509 140.15 0.714077 138.081C0.647264 137.059 0.589017 135.054 0.424243 134.119C0.103955 134.766 0.229328 134.83 0.0764911 135.437L0.0654639 134.485C-0.037027 132.68 0.0219024 130.165 0.0134712 128.299C-0.0142168 123.991 0.000776645 119.684 0.05845 115.377L0.287207 117.076C0.373423 116.152 0.440079 115.531 0.402369 114.609Z" fill="#00339E"/>
<path d="M108 196.566C119.86 195.577 132.178 192.689 143.578 189.423C149.583 187.703 155.212 184.39 161.07 182.493C169.331 179.816 178.479 178.531 186.509 182.612C187.066 182.895 187.994 183.118 188.584 182.866C190.564 185.349 192.169 187.669 194 190.211C192.086 190.276 189.02 193.397 187.238 194.439C166.554 206.542 141.487 205.706 118.865 199.902C115.466 199.03 111.27 197.954 108 196.566Z" fill="#D8D7D7"/>
<path d="M129.822 36.0641C135.875 35.4125 141.306 39.801 141.939 45.8554C142.573 51.9099 138.168 57.3276 132.111 57.9428C126.081 58.5557 120.691 54.1736 120.061 48.1447C119.43 42.1158 123.796 36.7131 129.822 36.0641Z" fill="#D8D7D7"/>
<path d="M139.644 49C139.957 49.1781 139.821 49.0596 140 49.4225C139.612 52.9764 137.176 54.1349 134.336 55C134.077 54.7251 134.076 54.5102 134 54.1259C134.305 53.1366 135.965 53.5206 136.779 52.9588C138.026 52.0977 138.787 50.2942 139.644 49Z" fill="#FBFBFB"/>
<path d="M111.82 99.0942C115.641 98.487 119.266 100.88 119.904 104.432C120.541 107.983 117.948 111.339 114.121 111.915C110.317 112.488 106.73 110.098 106.096 106.568C105.463 103.039 108.021 99.6975 111.82 99.0942Z" fill="#D8D7D7"/>
<path d="M117.537 108L117.847 108.071L118 108.321C117.545 109.704 115.089 110.677 113.407 111C113.227 110.895 113.158 110.828 113 110.704C113.221 110.119 114.709 110.222 115.418 109.849C116.422 109.322 116.623 108.738 117.437 108.08L117.537 108Z" fill="#FBFBFB"/>
<path d="M140.015 151.027C142.116 150.798 144.093 152.064 144.765 154.067C145.438 156.071 144.626 158.273 142.814 159.359C142.26 159.69 141.642 159.899 141.001 159.972C138.528 160.249 136.3 158.466 136.027 155.993C135.755 153.519 137.542 151.294 140.015 151.027Z" fill="#D8D7D7"/>
<path d="M143.821 155C144.544 156.27 142.896 157.741 142.159 158.525C141.488 158.731 140.857 158.854 140.177 159C140.121 158.911 140.039 158.636 140 158.52C140.134 158.123 142.772 156.276 143.821 155Z" fill="#FBFBFB"/>
<path d="M103.425 177.01C104.098 176.983 104.667 176.992 105.28 177.288C106.047 177.665 106.618 178.335 106.857 179.139C107.402 180.976 106.343 182.528 104.478 182.974C103.74 183.009 103.196 183.066 102.554 182.705C101.819 182.287 101.29 181.595 101.09 180.789C100.675 179.158 101.741 177.38 103.425 177.01Z" fill="#D8D7D7"/>
<path d="M106.834 180L106.988 180.123C107.193 181.175 104.744 181.897 103.233 182C103.06 181.867 103.094 181.861 103 181.692C103.339 181.338 106.085 180.279 106.834 180Z" fill="#FBFBFB"/>
</svg>

<svg xmlns="http://www.w3.org/2000/svg" width="248" height="248" fill="none" viewBox="0 0 248 248"><rect width="248" height="248" fill="#fff" rx="124"/><path fill="#fe0000" d="M188.263 182.794c-2.553-3.777-5.585-7.704-8.204-11.463a581 581 0 0 1-15.869-23.597c-3.402-5.286-8.726-13.578-11.042-19.221-2.424-5.91-3.229-19.007-3.788-25.582-.443-5.238-.605-12.105-.786-17.347-.465-14.501-.647-29.01-.547-43.518q-.002-9.039.093-18.076c.066-6.339-.981-15.025 6.25-18.252 3.95-1.763 7.253.018 11.006 1.324 23.805 8.29 44.303 23.963 59.056 44.28a122.4 122.4 0 0 1 11.937 20.063c5.623 12.218 9.612 25.622 10.826 39.015.099 1.078.557 6.563.805 7.077v13.198c-.264.578-.82 6.96-.934 8.142-.857 8.925-2.997 17.811-5.957 26.274a131 131 0 0 1-14.366 28.499 129 129 0 0 1-12.711 15.801c-1.12 1.188-2.441 2.319-3.458 3.589-2.252-3.387-5.404-7.014-7.82-10.368-2.966-4.12-6.023-8.395-9.132-12.391-1.812-2.578-3.4-4.93-5.359-7.447"/><path fill="#00339e" d="M.402 114.609c.173-2.607.297-5.558.646-8.118 4.255-29.2 18.481-55.958 40.197-75.606C52.854 20.562 66.265 12.36 80.814 7.089c4.992-1.809 10.212-4 14.346.897 3.5 4.147 2.703 10.615 2.728 15.815l.106 16.123a1857 1857 0 0 1-.245 35.133c-.194 15.611-.455 31.838-2.944 47.263-1.366 8.468-8.706 19.466-13.322 26.697a781 781 0 0 1-26.978 39.478l-13.086 18.079c-1.689 2.29-2.962 4.15-4.794 6.426-1.649-2.108-2.778-2.999-4.378-4.807a146 146 0 0 1-7.98-9.798c-6.219-8.182-11.808-18.682-15.526-28.277a134.2 134.2 0 0 1-7.29-25.869 50 50 0 0 1-.737-6.168c-.067-1.022-.125-3.027-.29-3.962-.32.647-.195.711-.348 1.318l-.01-.952c-.103-1.805-.044-4.32-.053-6.186q-.04-6.462.045-12.922l.23 1.699c.085-.924.152-1.545.114-2.467"/><path fill="#d8d7d7" d="M108 196.566c11.86-.989 24.178-3.877 35.578-7.143 6.005-1.72 11.634-5.033 17.492-6.93 8.261-2.677 17.409-3.962 25.439.119.557.283 1.485.506 2.075.254 1.98 2.483 3.585 4.803 5.416 7.345-1.914.065-4.98 3.186-6.762 4.228-20.684 12.103-45.751 11.267-68.373 5.463-3.399-.872-7.595-1.948-10.865-3.336M129.822 36.064c6.053-.651 11.484 3.737 12.117 9.791s-3.771 11.473-9.828 12.088c-6.03.613-11.42-3.77-12.05-9.798-.631-6.03 3.735-11.432 9.761-12.08"/><path fill="#fbfbfb" d="M139.644 49c.313.178.177.06.356.422-.388 3.554-2.824 4.713-5.664 5.578-.259-.275-.26-.49-.336-.874.305-.99 1.965-.605 2.779-1.167 1.247-.861 2.008-2.665 2.865-3.959"/><path fill="#d8d7d7" d="M111.82 99.094c3.821-.607 7.446 1.786 8.084 5.338s-1.956 6.907-5.783 7.483c-3.804.573-7.391-1.817-8.025-5.347-.633-3.529 1.925-6.87 5.724-7.474"/><path fill="#fbfbfb" d="m117.537 108 .31.071.153.25c-.455 1.383-2.911 2.356-4.593 2.679-.18-.105-.249-.172-.407-.296.221-.585 1.709-.482 2.418-.855 1.004-.527 1.205-1.111 2.019-1.769z"/><path fill="#d8d7d7" d="M140.015 151.027a4.5 4.5 0 1 1 .97 8.946 4.5 4.5 0 0 1-.97-8.946"/><path fill="#fbfbfb" d="M143.821 155c.723 1.27-.925 2.741-1.662 3.525-.671.206-1.302.329-1.982.475-.056-.089-.138-.364-.177-.48.134-.397 2.772-2.244 3.821-3.52"/><path fill="#d8d7d7" d="M103.425 177.01c.673-.027 1.242-.018 1.855.278a3.03 3.03 0 0 1 1.577 1.851c.545 1.837-.514 3.389-2.379 3.835-.738.035-1.282.092-1.924-.269a3.06 3.06 0 0 1-1.464-1.916c-.415-1.631.651-3.409 2.335-3.779"/><path fill="#fbfbfb" d="m106.834 180 .154.123c.205 1.052-2.244 1.774-3.755 1.877-.173-.133-.139-.139-.233-.308.339-.354 3.085-1.413 3.834-1.692"/></svg>
